!!!SOCIAL_FUNCTION:	songs of the sun dance
!!!PDT:	1936
!!!OTL: No_48_Arapaho_Sun-Dance_Song.krn
!!!REG: Oklahoma and Montana
!!!LANG: Tone
!!!LING_GROUP: Algonquin
**kern	**kern
*staff2	*staff1
=1-	=1-
*clefF4	*clefF4
*k[b-]	*k[b-]
*M2/4	*M2/4
12GG/	4.f\
12r	.
12GG/	.
12GG/	.
12r	.
.	8c\
12GG/	.
=2	=2
12GG/	4f\
12r	.
12GG/	.
4r	4c\
=3	=3
2r	8c\L
.	8A\J
.	8A\L
.	8F\J
=4	=4
2r	8A\L
.	8A\J
.	8F\
.	8r
=5	=5
2r	4.f\
.	8c\
=6	=6
2r	4f\
.	4c\
=7	=7
2r	8c\L
.	8A\J
.	8A\L
.	8F\J
=8	=8
2r	8A\L
.	8A\J
.	8F\
.	8r
=9!|:	=9!|:
2r	8A\L
.	8A\J
.	8A\L
.	16A\Jk
.	16r
=10	=10
2r	8A\L
.	8A\J
.	8G#\L
.	16G#\Jk
.	16r
=11	=11
2r	8G#\L
.	8G#\J
.	8G#\L
.	16G#\L
.	16F\JJ
=12	=12
*M3/4	*M3/4
2.r	8A\L
.	8A\J
.	16F\LK
.	8.F\J
.	8C/
.	8r
=13	=13
*M2/4	*M2/4
2r	8F\L
.	8F\J
.	8F\L
.	8F\J
=14	=14
2r	8F\L
.	8F\J
.	8C/L
.	8C/J
=15	=15
2r	16D/LL
.	16C/J
.	8C/J
.	8C/
.	8r
=16	=16
2r	2r
=17	=17
2r	8A^\L
.	8F\J
.	16G\LL
.	16F\
.	16F\JJ
.	16r
=18	=18
2r	8F\L
.	8F\J
.	8F\
.	8r
==:|!	==:|!
*-	*-
